icons/lines/huobi-token--ht-.svg

<svg xmlns="http://www.w3.org/2000/svg" width="24" height="24" viewBox="0 0 24 24" fill="none" stroke="currentColor" stroke-width="2" stroke-linecap="round" stroke-linejoin="round" >
  <path d="M16.1999 10C16.1999 10 15.9999 11 12.9999 15C10.0999 18.8 14.2999 21.6 14.7999 22H14.8999C15.4999 21.5 23.0999 16.7 16.1999 10Z" stroke-miterlimit="10"/>
  <path d="M13.7998 7.80001C13.7998 5.50001 12.8998 3.40001 11.9998 2.20001C11.6998 1.90001 11.1998 2.00001 11.0998 2.40001C10.6998 3.90001 9.49981 7.10001 6.59981 10.9C2.89981 15.7 6.29981 20.9 9.79981 21.9C11.6998 22.4 9.29981 20.9 8.99981 17.8C8.69981 13.9 13.7998 11 13.7998 7.80001Z" stroke-miterlimit="10"/>
  </svg>

<svg xmlns="http://www.w3.org/2000/svg" width="24" height="24" viewBox="0 0 24 24" fill="none" stroke="currentColor" stroke-width="2" stroke-linecap="round" stroke-linejoin="round">
  <path d="M13.8 7.8c0-2.3-.9-4.4-1.8-5.6-.3-.3-.8-.2-.9.2-.4 1.5-1.6 4.7-4.5 8.5-3.7 4.8-.3 10 3.2 11 1.9.5-.5-1-.8-4.1-.3-3.9 4.8-6.8 4.8-10" />
  <path d="M16.2 10s-.2 1-3.2 5c-2.9 3.8 1.3 6.6 1.8 7h.1c.6-.5 8.2-5.3 1.3-12" />
</svg>
